rospo-light/symbolic/status/capslock-enabled.svg

<svg height="16" width="16" xmlns="http://www.w3.org/2000/svg"><path d="m0 13.203.00052738.547c.00117262 1.212 1.03807262 2.25 2.24987262 2.25h11.4996c1.212 0 2.25-1.038 2.25-2.25v-.547c-.532.485-1.225.797-2 .797h-11.9996c-.7746 0-1.46881-.312-2.0004-.797z" fill="#5c616c"/><path d="m3 0c-1.0192-.0002-1.8756.7663-1.9883 1.7793l-.99998 8.9997c-.1316 1.185.79611 2.221 1.98828 2.221h12c1.192 0 2.12-1.036 1.988-2.221l-1-8.9997c-.113-1.0129-.969-1.7794-1.988-1.7793zm3.8984 2h2.3145l2.9101 9h-1.91l-.6095-2h-3.0762l-.6171 2h-1.9102zm1.1817 1.2969-1.0801 3.9921h2.1797z" fill="#5c616c"/></svg>

<svg xmlns="http://www.w3.org/2000/svg" width="16" height="16" version="1.1">
 <g>
  <path style="fill:#5c616c" d="M 0,13.203 5.2738e-4,13.75 C 0.0017,14.962 1.0386,16 2.2504,16 H 13.75 C 14.962,16 16,14.962 16,13.75 V 13.203 C 15.468,13.688 14.775,14 14,14 H 2.0004 C 1.2258,14 0.53159,13.688 0,13.203 Z"/>
  <path style="fill:#5c616c" d="M 3,0 C 1.9808,-2e-4 1.1244,0.7663 1.0117,1.7793 L 0.01172,10.779 C -0.11988,11.964 0.80783,13 2,13 H 14 C 15.192,13 16.12,11.964 15.988,10.779 L 14.988,1.7793 C 14.875,0.7664 14.019,-10e-5 13,0 Z M 6.8984,2 H 9.2129 L 12.123,11 H 10.213 L 9.6035,9 H 6.5273 L 5.9102,11 H 4 Z M 8.0801,3.2969 7,7.289 H 9.1797 Z"/>
 </g>
</svg>
